X: 363
T:The History Man
M:4/4
L:1/8
Q:150
C:Andy Cutting
N:Transcription falls somewhere between AC's and Mike McGoldrick's
N:versions
Z:Steve Mansfield 1997
K:G
BA |: G3A BAGA | BG d2 de/d/ BA |
G3A BAGA | BGdB A2 BA |
G3A BAGA | BG d2 de/d/Bd |
e3f edBG | AGAB AGEG |
c3B AGEG | AGAB AGEG |
1A6 B/c/B/A/ :|
2 A3A AGAB
|: c3d efg2 | g/a/g fe d2 Bd |
ef g2 gagf | e6 Bd |
ef g2 f2 ed | B2 Bd BAGF |
GAB(A A)B/A/ GF
|1G3A AGAB :|
2 G6 |

